resources/dark/controls/F.svg

<svg xmlns="http://www.w3.org/2000/svg" width="16" height="16"><style type="text/css">.icon-canvas-transparent{opacity:0;fill:#F6F6F6;} .icon-vs-out{fill:#F6F6F6;} .icon-vs-bg{fill:#424242;} .icon-vs-fg{fill:#F0EFF1;}</style><path class="icon-canvas-transparent" d="M16 16h-16v-16h16v16z" id="canvas"/><path class="icon-vs-out" d="M14 7v-7h-13.966l-.037 13h4.003v3h12v-9h-2z" id="outline"/><path class="icon-vs-bg" d="M4 12h-3l.031-11h11.969v6h-1v-3h-10v7h2v1zm11-4v7h-10v-7h10zm-1 1h-8v5h8v-5z" id="iconBg"/><path class="icon-vs-fg" d="M2 11v-7h10v3h-8v4h-2zm12-2h-8v5h8v-5z" id="iconFg"/></svg>

<svg xmlns="http://www.w3.org/2000/svg" viewBox="0 0 16 16"><defs><style>.cls-1{fill:#424242;}.cls-2{fill:#f6f6f6;}</style></defs><title>SubForm_16x_1</title><g id="Layer_2" data-name="Layer 2"><g id="Layer_1-2" data-name="Layer 1"><path id="outline" class="cls-1" d="M14,7V0H0V13H4v3H16V7Z"/><path id="iconBg" class="cls-2" d="M4,12H1V1H13V7H12V4H2v7H4ZM15,8v7H5V8ZM14,9H6v5h8Z"/><path id="iconFg" class="cls-1" d="M2,11V4H12V7H4v4ZM14,9H6v5h8Z"/></g></g></svg>
